Newaita-dark/apps/48/utilities-terminal.svg

<svg height="48" viewBox="0 0 48 48" width="48" xmlns="http://www.w3.org/2000/svg" xmlns:xlink="http://www.w3.org/1999/xlink"><linearGradient id="a" gradientUnits="userSpaceOnUse" x1="22.822488" x2="22.822488" y1="42.0509015" y2="44.03546750005"><stop offset="0" stop-opacity=".27451"/><stop offset="1" stop-opacity="0"/></linearGradient><linearGradient id="b"><stop offset="0" stop-opacity=".313726"/><stop offset=".222222" stop-opacity=".27451"/><stop offset="1" stop-opacity="0"/></linearGradient><radialGradient id="c" cx="450.908936" cy="189.579361" gradientTransform="matrix(.00000026 -.117199 -.210958 -.00000015 80.180533 95.392999)" gradientUnits="userSpaceOnUse" r="21.166656" xlink:href="#b"/><radialGradient id="d" cx="450.908936" cy="189.579361" gradientTransform="matrix(-.00000026 .117199 .210958 .00000015 -32.550981 -11.291218)" gradientUnits="userSpaceOnUse" r="21.166656" xlink:href="#b"/><radialGradient id="e" cx="450.908936" cy="189.579361" gradientTransform="matrix(-.00000026 -.117199 .210958 -.00000015 -32.550981 95.392999)" gradientUnits="userSpaceOnUse" r="21.166656" xlink:href="#b"/><radialGradient id="f" cx="450.908936" cy="189.579361" gradientTransform="matrix(.00000026 .117199 -.210958 .00000015 80.18053 -11.291219)" gradientUnits="userSpaceOnUse" r="21.166656" xlink:href="#b"/><linearGradient id="g" gradientTransform="matrix(.10811 0 0 .285939 -7.36381 46.764738)" gradientUnits="userSpaceOnUse" x1="306.752655" x2="305.954529" y1="-16.485477" y2="-141.414581"><stop offset="0" stop-color="#616161"/><stop offset="1" stop-color="#757575"/></linearGradient><linearGradient id="h" gradientUnits="userSpaceOnUse" x1="23.814786" x2="23.814786" y1="42.0509015" y2="6.3287225"><stop offset="0" stop-color="#424242"/><stop offset="1" stop-color="#616161"/></linearGradient><linearGradient id="i" gradientUnits="userSpaceOnUse" x1="18.85337174995" x2="18.85337174995" y1="42.0509015" y2="6.3287225"><stop offset="0" stop-color="#bdbdbd"/><stop offset="1" stop-color="#e0e0e0"/></linearGradient><path d="m6.945312 42.160156h33.738282v1.875h-33.738282zm0 0" fill="url(#a)"/><path d="m40.683594 42.050781h3.96875v-1.984375h-3.96875zm0 0" fill="url(#c)"/><path d="m6.945312 42.050781h-3.96875v1.984375h3.96875zm0 0" fill="url(#d)"/><path d="m6.945312 42.050781h-3.96875v-1.984375h3.96875zm0 0" fill="url(#e)"/><path d="m40.683594 42.050781h3.96875v1.984375h-3.96875zm0 0" fill="url(#f)"/><path d="m4.960938 6.328125h37.707031c1.097656 0 1.984375.839844 1.984375 1.875v31.972656c0 1.035157-.886719 1.875-1.984375 1.875h-37.707031c-1.09375 0-1.984376-.839843-1.984376-1.875v-31.972656c0-1.035156.890626-1.875 1.984376-1.875zm0 0" fill="url(#g)"/><path d="m5.953125 8.3125h35.722656c.546875 0 .992188.445312.992188.992188v29.769531c0 .546875-.445313.992187-.992188.992187h-35.722656c-.546875 0-.992187-.445312-.992187-.992187v-29.769531c0-.546876.445312-.992188.992187-.992188zm0 0" fill="url(#h)"/><path d="m4.960938 6.328125c-1.097657 0-1.984376.835937-1.984376 1.875v.496094c0-1.039063.886719-1.875 1.984376-1.875h37.707031c1.101562 0 1.984375.835937 1.984375 1.875v-.496094c0-1.039063-.882813-1.875-1.984375-1.875zm0 0" fill="#fff" fill-opacity=".313726"/><path d="m4.960938 42.066406c-1.097657 0-1.984376-.835937-1.984376-1.875v-.496094c0 1.039063.886719 1.875 1.984376 1.875h37.707031c1.101562 0 1.984375-.835937 1.984375-1.875v.496094c0 1.039063-.882813 1.875-1.984375 1.875zm0 0" fill-opacity=".235294"/><path d="m52.911614-147.506445h402.169928c11.707215 0 21.164645 8.957478 21.164645 19.99809v341.009102c0 11.040612-9.45743 19.99809-21.164645 19.99809h-402.169928c-11.665553 0-21.164646-8.957478-21.164646-19.99809v-341.009102c0-11.040612 9.499093-19.99809 21.164646-19.99809zm0 0" fill="none" stroke="#212121" stroke-linecap="round" stroke-width="3" transform="matrix(.093759 0 0 .093759 0 20.158175)"/><path d="m9.511719 12.042969c-.386719-.390625-1.015625-.390625-1.402344 0-.390625.386719-.390625 1.011719 0 1.402343l2.804687 2.804688-2.804687 2.808594c-.390625.386718-.390625 1.015625 0 1.402344.386719.390624 1.015625.390624 1.402344 0l3.507812-3.507813c.023438-.023437.046875-.050781.070313-.074219.316406-.390625.292968-.964844-.070313-1.328125zm0 0" fill="url(#i)"/><path d="m8.808594 11.75c-.253906 0-.503906.097656-.699219.292969-.257813.257812-.34375.617187-.261719.945312.042969-.167969.128906-.328125.261719-.457031.386719-.390625 1.015625-.390625 1.402344 0l3.507812 3.507812c.132813.132813.21875.289063.261719.457032.082031-.328125-.003906-.6875-.261719-.945313l-3.507812-3.507812c-.195313-.195313-.449219-.292969-.703125-.292969zm1.863281 4.746094-2.5625 2.5625c-.257813.257812-.34375.617187-.261719.945312.042969-.167968.128906-.324218.261719-.457031l2.804687-2.804687zm0 0" fill="#fff" fill-opacity=".784314"/><path d="m7.847656 12.992188c-.082031.328124.003906.691406.261719.949218l2.558594 2.558594.246093-.25-2.804687-2.804688c-.132813-.128906-.21875-.289062-.261719-.453124zm5.433594 3.507812c-.035156.132812-.101562.265625-.191406.378906-.023438.023438-.046875.050782-.070313.074219l-3.507812 3.507813c-.386719.390624-1.015625.390624-1.402344 0-.132813-.128907-.21875-.289063-.261719-.453126-.082031.328126.003906.691407.261719.949219.386719.390625 1.015625.390625 1.402344 0l3.507812-3.507812c.023438-.023438.046875-.050781.070313-.074219.203125-.25.265625-.578125.191406-.875zm0 0" fill-opacity=".235294"/><path d="m101.448645-86.553933c-4.124606-4.166268-10.832298-4.166268-14.956905 0-4.166268 4.124606-4.166268 10.790637 0 14.956905l29.91381 29.91381-29.91381 29.955473c-4.166268 4.124606-4.166268 10.832299 0 14.956905 4.124607 4.166269 10.832299 4.166269 14.956905 0l37.413094-37.413094c.249976-.249976.499953-.541615.749929-.791591 3.374677-4.166269 3.124701-10.290684-.749929-14.165314zm0 0" fill="none" stroke="#212121" stroke-linecap="round" stroke-width="3" transform="matrix(.093759 0 0 .093759 0 20.158175)"/><path d="m5.953125 8.4375c-.550781 0-.992187.441406-.992187.992188v.371093c0-.546875.441406-.992187.992187-.992187h35.722656c.550781 0 .992188.445312.992188.992187v-.371093c0-.550782-.441407-.992188-.992188-.992188zm0 0" fill-opacity=".235294"/><path d="m5.953125 40.574219c-.550781 0-.992187-.445313-.992187-.992188v-.375c0 .550781.441406.992188.992187.992188h35.722656c.550781 0 .992188-.441407.992188-.992188v.375c0 .546875-.441407.992188-.992188.992188zm0 0" fill="#fff" fill-opacity=".392157"/><path d="m63.493937-126.3418h381.005282c5.832776 0 10.582323 4.749547 10.582323 10.582323v317.511346c0 5.832776-4.749547 10.582323-10.582323 10.582323h-381.005282c-5.832777 0-10.582323-4.749547-10.582323-10.582323v-317.511346c0-5.832776 4.749546-10.582323 10.582323-10.582323zm0 0" fill="none" stroke="#212121" stroke-linecap="round" stroke-linejoin="round" stroke-width="3" transform="matrix(.093759 0 0 .093759 0 20.158175)"/></svg>

<?xml version="1.0" encoding="UTF-8"?>
<svg xmlns="http://www.w3.org/2000/svg" xmlns:xlink="http://www.w3.org/1999/xlink" width="48pt" height="48pt" viewBox="0 0 48 48" version="1.1">
<defs>
<linearGradient id="linear0" gradientUnits="userSpaceOnUse" x1="254" y1="233.5" x2="254" y2="254.666672" gradientTransform="matrix(0.093759,0,0,0.093759,-0.992298,20.158175)">
<stop offset="0" style="stop-color:rgb(0%,0%,0%);stop-opacity:0.27451;"/>
<stop offset="1" style="stop-color:rgb(0%,0%,0%);stop-opacity:0;"/>
</linearGradient>
<radialGradient id="radial0" gradientUnits="userSpaceOnUse" cx="450.908936" cy="189.579361" fx="450.908936" fy="189.579361" r="21.166656" gradientTransform="matrix(0.000000261256,-0.117199,-0.210958,-0.000000152308,80.180533,95.392999)">
<stop offset="0" style="stop-color:rgb(0%,0%,0%);stop-opacity:0.313726;"/>
<stop offset="0.222222" style="stop-color:rgb(0%,0%,0%);stop-opacity:0.27451;"/>
<stop offset="1" style="stop-color:rgb(0%,0%,0%);stop-opacity:0;"/>
</radialGradient>
<radialGradient id="radial1" gradientUnits="userSpaceOnUse" cx="450.908936" cy="189.579361" fx="450.908936" fy="189.579361" r="21.166656" gradientTransform="matrix(-0.000000261256,0.117199,0.210958,0.000000152308,-32.550981,-11.291218)">
<stop offset="0" style="stop-color:rgb(0%,0%,0%);stop-opacity:0.313726;"/>
<stop offset="0.222222" style="stop-color:rgb(0%,0%,0%);stop-opacity:0.27451;"/>
<stop offset="1" style="stop-color:rgb(0%,0%,0%);stop-opacity:0;"/>
</radialGradient>
<radialGradient id="radial2" gradientUnits="userSpaceOnUse" cx="450.908936" cy="189.579361" fx="450.908936" fy="189.579361" r="21.166656" gradientTransform="matrix(-0.000000261256,-0.117199,0.210958,-0.000000152308,-32.550981,95.392999)">
<stop offset="0" style="stop-color:rgb(0%,0%,0%);stop-opacity:0.313726;"/>
<stop offset="0.222222" style="stop-color:rgb(0%,0%,0%);stop-opacity:0.27451;"/>
<stop offset="1" style="stop-color:rgb(0%,0%,0%);stop-opacity:0;"/>
</radialGradient>
<radialGradient id="radial3" gradientUnits="userSpaceOnUse" cx="450.908936" cy="189.579361" fx="450.908936" fy="189.579361" r="21.166656" gradientTransform="matrix(0.000000261256,0.117199,-0.210958,0.000000152308,80.18053,-11.291219)">
<stop offset="0" style="stop-color:rgb(0%,0%,0%);stop-opacity:0.313726;"/>
<stop offset="0.222222" style="stop-color:rgb(0%,0%,0%);stop-opacity:0.27451;"/>
<stop offset="1" style="stop-color:rgb(0%,0%,0%);stop-opacity:0;"/>
</radialGradient>
<linearGradient id="linear1" gradientUnits="userSpaceOnUse" x1="307.62677" y1="-22.391003" x2="305.954529" y2="-141.414581" gradientTransform="matrix(0.10811,0,0,0.285939,-7.36381,46.764738)">
<stop offset="0" style="stop-color:rgb(25.882354%,25.882354%,25.882354%);stop-opacity:1;"/>
<stop offset="1" style="stop-color:rgb(38.039216%,38.039216%,38.039216%);stop-opacity:1;"/>
</linearGradient>
</defs>
<g id="surface1">
<path style=" stroke:none;fill-rule:nonzero;fill:url(#linear0);" d="M 6.945312 42.160156 L 40.683594 42.160156 L 40.683594 44.035156 L 6.945312 44.035156 Z M 6.945312 42.160156 "/>
<path style=" stroke:none;fill-rule:nonzero;fill:url(#radial0);" d="M 40.683594 42.050781 L 44.652344 42.050781 L 44.652344 40.066406 L 40.683594 40.066406 Z M 40.683594 42.050781 "/>
<path style=" stroke:none;fill-rule:nonzero;fill:url(#radial1);" d="M 6.945312 42.050781 L 2.976562 42.050781 L 2.976562 44.035156 L 6.945312 44.035156 Z M 6.945312 42.050781 "/>
<path style=" stroke:none;fill-rule:nonzero;fill:url(#radial2);" d="M 6.945312 42.050781 L 2.976562 42.050781 L 2.976562 40.066406 L 6.945312 40.066406 Z M 6.945312 42.050781 "/>
<path style=" stroke:none;fill-rule:nonzero;fill:url(#radial3);" d="M 40.683594 42.050781 L 44.652344 42.050781 L 44.652344 44.035156 L 40.683594 44.035156 Z M 40.683594 42.050781 "/>
<path style=" stroke:none;fill-rule:nonzero;fill:url(#linear1);" d="M 4.960938 6.328125 L 42.667969 6.328125 C 43.765625 6.328125 44.652344 7.167969 44.652344 8.203125 L 44.652344 40.175781 C 44.652344 41.210938 43.765625 42.050781 42.667969 42.050781 L 4.960938 42.050781 C 3.867188 42.050781 2.976562 41.210938 2.976562 40.175781 L 2.976562 8.203125 C 2.976562 7.167969 3.867188 6.328125 4.960938 6.328125 Z M 4.960938 6.328125 "/>
<path style=" stroke:none;fill-rule:nonzero;fill:rgb(92.54902%,92.54902%,92.54902%);fill-opacity:0.588235;" d="M 12.984375 18.988281 C 12.597656 18.597656 11.96875 18.597656 11.582031 18.988281 C 11.191406 19.375 11.191406 20.003906 11.582031 20.390625 L 14.386719 23.199219 L 11.582031 26.003906 C 11.191406 26.394531 11.191406 27.019531 11.582031 27.40625 C 11.96875 27.796875 12.597656 27.796875 12.984375 27.40625 L 16.492188 23.898438 C 16.515625 23.875 16.539062 23.851562 16.5625 23.824219 C 16.878906 23.433594 16.859375 22.859375 16.492188 22.496094 Z M 12.984375 18.988281 "/>
<path style=" stroke:none;fill-rule:nonzero;fill:rgb(100%,100%,100%);fill-opacity:0.392157;" d="M 4.960938 6.328125 C 3.863281 6.328125 2.976562 7.164062 2.976562 8.203125 L 2.976562 8.699219 C 2.976562 7.660156 3.863281 6.824219 4.960938 6.824219 L 42.667969 6.824219 C 43.769531 6.824219 44.652344 7.660156 44.652344 8.699219 L 44.652344 8.203125 C 44.652344 7.164062 43.769531 6.328125 42.667969 6.328125 Z M 4.960938 6.328125 "/>
<path style=" stroke:none;fill-rule:nonzero;fill:rgb(0%,0%,0%);fill-opacity:0.235294;" d="M 4.960938 42.066406 C 3.863281 42.066406 2.976562 41.230469 2.976562 40.191406 L 2.976562 39.695312 C 2.976562 40.734375 3.863281 41.570312 4.960938 41.570312 L 42.667969 41.570312 C 43.769531 41.570312 44.652344 40.734375 44.652344 39.695312 L 44.652344 40.191406 C 44.652344 41.230469 43.769531 42.066406 42.667969 42.066406 Z M 4.960938 42.066406 "/>
<path style=" stroke:none;fill-rule:nonzero;fill:rgb(6.666667%,6.666667%,6.666667%);fill-opacity:0.588235;" d="M 5.953125 8.195312 C 5.339844 8.195312 4.84375 8.691406 4.84375 9.304688 L 4.84375 37.089844 C 4.84375 37.703125 5.339844 38.199219 5.953125 38.199219 L 41.675781 38.199219 C 42.289062 38.199219 42.785156 37.703125 42.785156 37.089844 L 42.785156 9.304688 C 42.785156 8.691406 42.289062 8.195312 41.675781 8.195312 Z M 5.953125 8.429688 L 41.675781 8.429688 C 42.164062 8.429688 42.550781 8.820312 42.550781 9.304688 L 42.550781 37.089844 C 42.550781 37.578125 42.164062 37.964844 41.675781 37.964844 L 5.953125 37.964844 C 5.46875 37.964844 5.078125 37.578125 5.078125 37.089844 L 5.078125 9.304688 C 5.078125 8.820312 5.46875 8.429688 5.953125 8.429688 Z M 5.953125 8.429688 "/>
<path style=" stroke:none;fill-rule:nonzero;fill:rgb(87.058824%,87.058824%,87.058824%);fill-opacity:0.705882;" d="M 5.953125 8.445312 C 5.476562 8.445312 5.09375 8.832031 5.09375 9.304688 L 5.09375 37.089844 C 5.09375 37.566406 5.476562 37.949219 5.953125 37.949219 L 41.675781 37.949219 C 42.152344 37.949219 42.539062 37.566406 42.539062 37.089844 L 42.539062 9.304688 C 42.539062 8.832031 42.152344 8.445312 41.675781 8.445312 Z M 5.953125 8.679688 L 41.675781 8.679688 C 42.023438 8.679688 42.304688 8.957031 42.304688 9.304688 L 42.304688 37.089844 C 42.304688 37.4375 42.023438 37.714844 41.675781 37.714844 L 5.953125 37.714844 C 5.605469 37.714844 5.328125 37.4375 5.328125 37.089844 L 5.328125 9.304688 C 5.328125 8.957031 5.605469 8.679688 5.953125 8.679688 Z M 5.953125 8.679688 "/>
<path style="fill:none;stroke-width:3;stroke-linecap:round;stroke-linejoin:miter;stroke:rgb(12.941177%,12.941177%,12.941177%);stroke-opacity:1;stroke-miterlimit:4;" d="M 52.911614 -147.506445 L 455.081542 -147.506445 C 466.788757 -147.506445 476.246187 -138.548967 476.246187 -127.508355 L 476.246187 213.500747 C 476.246187 224.541359 466.788757 233.498837 455.081542 233.498837 L 52.911614 233.498837 C 41.246061 233.498837 31.746968 224.541359 31.746968 213.500747 L 31.746968 -127.508355 C 31.746968 -138.548967 41.246061 -147.506445 52.911614 -147.506445 Z M 52.911614 -147.506445 " transform="matrix(0.093759,0,0,0.093759,0,20.158175)"/>
</g>
</svg>
